src/16/panel/spotify-indicator.svg

<svg xmlns="http://www.w3.org/2000/svg" width="16" height="16" version="1.1">
 <defs>
  <style id="current-color-scheme" type="text/css">
   .ColorScheme-Text { color:#bebebe; } .ColorScheme-Highlight { color:#5294e2; }
  </style>
 </defs>
 <path style="fill:currentColor" class="ColorScheme-Text" d="M 8,1 A 7,7 0 0 0 1,8 7,7 0 0 0 8,15 7,7 0 0 0 15,8 7,7 0 0 0 8,1 Z M 6.5156,4.002 C 6.6512,3.9995 6.7887,4.0007 6.9219,4.002 10.119,4.0457 12.607,5.373 12.607,5.373 12.931,5.5451 13.086,6.0599 12.951,6.4727 12.816,6.8854 12.4,7.115 12.076,6.9434 12.076,6.9434 8.021,4.8027 3.8926,6.1191 3.5449,6.2645 3.1067,5.9836 3.0176,5.5312 2.9285,5.079 3.1885,4.5538 3.5488,4.4727 4.5666,4.1481 5.5666,4.0218 6.5156,4.002 Z M 6.9512,7.002 C 7.064,7.001 7.1634,6.9978 7.2734,7.002 9.9124,7.094 11.74,8.5527 11.74,8.5527 11.974,8.7377 12.068,9.2143 11.947,9.5723 11.826,9.9303 11.506,10.111 11.271,9.9258 11.271,9.9258 8.364,7.5812 4.6289,8.9512 4.3664,9.0752 4.0755,8.8289 4.0117,8.4199 3.9479,8.0109 4.153,7.5612 4.4238,7.4902 5.3212,7.1612 6.162,7.009 6.9512,7.002 Z M 7.2656,10 C 8.5566,10.025 9.7076,10.504 10.809,11.154 10.973,11.262 11.052,11.566 10.961,11.783 10.87,12.001 10.624,12.068 10.475,11.924 10.475,11.924 8.439,10.265 5.418,11.189 5.2446,11.264 5.046,11.12 5.0059,10.875 4.9658,10.63 5.1092,10.35 5.2891,10.314 5.9993,10.097 6.6604,9.996 7.2656,10 Z"/>
</svg>

<svg xmlns="http://www.w3.org/2000/svg" width="16" height="16"><defs><style id="current-color-scheme" type="text/css"></style></defs><path d="M8 1a7 7 0 0 0-7 7 7 7 0 0 0 7 7 7 7 0 0 0 7-7 7 7 0 0 0-7-7zM6.516 4.002c.135-.002.273-.001.406 0 3.197.044 5.685 1.371 5.685 1.371.324.172.479.687.344 1.1-.135.412-.551.642-.875.47 0 0-4.055-2.14-8.183-.824-.348.146-.786-.135-.875-.588-.09-.452.17-.977.53-1.058a10.409 10.409 0 0 1 2.968-.471zm.435 3c.113-.001.212-.004.322 0 2.64.092 4.467 1.55 4.467 1.55.234.186.328.662.207 1.02-.121.358-.441.539-.676.354 0 0-2.907-2.345-6.642-.975-.263.124-.553-.122-.617-.531-.064-.41.141-.859.412-.93.897-.329 1.738-.481 2.527-.488zM7.266 10c1.29.025 2.442.504 3.543 1.154.164.108.243.412.152.629-.091.218-.337.285-.486.141 0 0-2.036-1.659-5.057-.735-.173.075-.372-.069-.412-.314-.04-.245.103-.525.283-.561A6.636 6.636 0 0 1 7.266 10z" fill="currentColor" color="#bebebe"/></svg>
